X:30
T:Boys on the Hilltop
R:Reel
M:4/4
L:1/8
K:G
|:A3c BGAG | EGGF G2AG | EAA2 BABd | egdB BAdB |
|A3c BGAG | EGGF G2AB | c3A B2GB | dBGA BAA2 |
|:A2Bd egdB | GBB2 defg | a2fd (3efg dB | GBdB BAA2 |
|a2fd egdB | GBdB defg | a2fd edef | gbaf gedB :|
